X:1
T:Title
%%score 1 2
L:1/8
Q:1/4=100
M:6/8
K:Ab
V:1 treble nm="Grand Piano, Soprano"
V:2 bass nm="Choir Pad, Hail! Glorious Army"
V:1
 [Ec]2 [CA] [CA]2 [DB] | [DA]3 [DG]3 | [DF]2 [DF] [Ed]2 [Ed] | [Ec]6 | [Ec]2 [CA] [CA]2 [DB] | %5
w: By~A.~F.~Myers * * *|||||
 [DA]3 [DG]3 | [Ge]2 [Gd] [Gc]2 [GB] | [EA]6 | [Fd]2 [Fd] [FA]2 [FB] | [=Ec]3 [Ec]3 | %10
w: |||||
 [FB]2 [FB] [=Dc]2 [DB] | E6 | [Ec]2 [CA] [CA]2 [DB] | [DA]3 [EG]3 | [Ed]2 [Ed] [Ec]2 [DB] | %15
w: |||||
 [CA]6 | [CE]3 [CF]2 [CE] | [CA]3 [CE]3 | [CE]3 [CF]2 [CE] | [DG]6 | [DE]3 [DF]2 [DE] | %21
w: ||||||
 [DB]3 [DE]3 | [DE]3 [Ed]2 [Ed] | [Ec]6 | [CE]3 [CF]2 [CE] | [CA]3 [Ec]3 | [_Ge]2 [Ge] [Fd]2 [Fd] | %27
w: ||||||
 [DF]6 | [CE]2 [CE] [CA]2 [Ec] | [Ee]6 | [Ee]2 [Fd] [Ec]2 [DB] | [CA]6- | [CA]3 z3 |] %33
w: ||||||
V:2
 [A,,A,]2 [A,,E,] [A,,E,]2 [A,,E,] | [B,,E,]3 E,3 | [E,A,]2 [E,A,] [E,G,]2 [E,G,] | [A,,A,]6 | %4
 [A,,A,]2 [A,,E,] [A,,E,]2 [A,,E,] | [B,,E,]3 E,3 | [E,B,]2 [E,B,] [E,E]2 [E,D] | [A,C]6 | %8
 [D,A,]2 [D,A,] [D,D]2 [D,F,] | [C,G,]3 [C,G,]3 | [=D,B,]2 [D,B,] [B,,A,]2 [B,,A,] | [E,G,]6 | %12
 [A,,A,]2 [A,,E,] [A,,E,]2 [A,,E,] | [B,,E,]3 E,3 | E,2 [E,B,] [E,A,]2 [E,G,] | [A,,A,]6 | %16
 [A,,A,]2 [A,,A,] [A,,A,]2 [A,,A,] | [A,,E,]2 [A,,E,] [A,,A,]2 [A,,A,] | %18
 [A,,A,]2 [A,,A,] [A,,A,]2 [A,,A,] | [E,B,]2 [E,B,] [E,B,]3 | [E,G,]2 [E,G,] [E,A,]2 [E,G,] | %21
 [E,G,]2 [E,G,] [E,G,]2 [E,G,] | [E,G,]2 [E,G,] [E,B,]2 [E,B,] | [A,,A,]2 [A,,A,] [A,,A,]3 | %24
 [A,,A,]2 [A,,A,] [A,,A,]2 [A,,A,] | [A,,A,]2 [A,,A,] [A,,A,]2 [A,,A,] | %26
 [C,A,]2 [C,A,] [D,A,]2 [D,A,] | [D,A,]2 [D,A,] [D,A,]3 | [E,A,]2 [E,A,] [E,A,]2 [E,A,] | %29
 [E,G,]2 [E,G,] [E,G,]3 | [C,A,]2 [D,A,] [E,A,]2 [E,G,] | [A,,A,]6- | [A,,A,]3 z3 |] %33

